src/assets/images/expertise/redux.svg

<?xml version="1.0" encoding="utf-8"?>
<svg width="84" height="79" viewBox="0 0 84 79" fill="none" xmlns="http://www.w3.org/2000/svg">
<g opacity="0.6">
<path d="M57.6939 55.2219C59.1906 55.0559 60.567 54.3235 61.5408 53.1749C62.5146 52.0263 63.0119 50.5486 62.9308 49.0449C62.8496 47.5413 62.1961 46.1257 61.1044 45.0886C60.0126 44.0514 58.5654 43.4714 57.0596 43.4674H56.8481C56.0759 43.4939 55.3166 43.6725 54.6135 43.9929C53.9105 44.3134 53.2776 44.7695 52.7511 45.335C52.2247 45.9006 51.815 46.5644 51.5456 47.2886C51.2763 48.0128 51.1524 48.783 51.1813 49.5551C51.253 51.0102 51.8494 52.3901 52.8602 53.4394C49.2909 60.4722 43.8334 65.6147 35.6481 69.9177C30.0912 72.8526 24.3186 73.9099 18.546 73.1698C13.8223 72.5355 10.1494 70.44 7.84033 66.9764C4.4825 61.834 4.16744 56.2707 6.99453 50.7075C8.9885 46.7195 12.137 43.7804 14.131 42.3108C13.7081 40.9469 13.0737 38.6379 12.7671 36.959C-2.4573 47.9798 -0.877764 62.8828 3.74031 69.9156C7.20386 75.1638 14.2367 78.418 22.0033 78.418C24.1244 78.4333 26.2394 78.1868 28.3002 77.6843C41.7421 75.0602 51.9213 67.0822 57.6939 55.2219Z" fill="#1F3D56"/>
<path d="M76.1661 42.21C68.1902 32.8681 56.4336 27.7256 43.0001 27.7256H41.3318C40.8487 26.7774 40.1125 25.9814 39.2049 25.4257C38.2973 24.87 37.2536 24.5763 36.1893 24.5772H35.9779C34.4479 24.6468 33.0054 25.3106 31.9573 26.4274C30.9092 27.5442 30.3382 29.0259 30.3657 30.5573C30.3932 32.0886 31.0172 33.5488 32.1048 34.6272C33.1924 35.7056 34.6578 36.3171 36.1893 36.3317H36.4008C37.5058 36.2767 38.5734 35.9131 39.4823 35.2822C40.3912 34.6513 41.1052 33.7784 41.5432 32.7624H43.4315C51.4074 32.7624 58.9646 35.0714 65.7881 39.5838C71.0363 43.0473 74.8149 47.5597 76.9125 53.0172C78.6971 57.4259 78.5914 61.7289 76.7011 65.4018C73.7619 70.9651 68.8288 74.0078 62.3225 74.0078C58.1252 74.0078 54.1351 72.7391 52.0375 71.8045C50.883 72.8618 48.7833 74.5344 47.3137 75.5831C51.8261 77.6828 56.4441 78.8374 60.8465 78.8374C70.9221 78.8374 78.3736 73.2741 81.2071 67.713C84.2562 61.6253 84.0447 51.1311 76.1661 42.21Z" fill="#1F3D56"/>
<path d="M22.8492 57.007C22.9082 58.5277 23.5529 59.9666 24.6485 61.0228C25.7441 62.079 27.2057 62.6706 28.7276 62.6738H28.939C30.469 62.6042 31.9115 61.9404 32.9596 60.8236C34.0077 59.7068 34.5787 58.2251 34.5512 56.6937C34.5236 55.1624 33.8997 53.7022 32.8121 52.6238C31.7245 51.5454 30.2591 50.9339 28.7276 50.9193H28.5161C28.2668 50.9029 28.0169 50.9389 27.7824 51.0251C23.4794 43.8886 21.6947 36.1221 22.3248 27.7254C22.7435 21.4284 24.839 15.973 28.5161 11.4564C31.5589 7.57205 37.4372 5.68381 41.4251 5.57808C52.5495 5.36663 57.2839 19.223 57.5884 24.7841C58.9522 25.0992 61.2613 25.8413 62.8366 26.3594C61.5784 9.35669 51.0821 0.537109 41.0065 0.537109C31.561 0.537109 22.8492 7.35849 19.3857 17.4341C14.5583 30.8675 17.7068 43.7787 23.583 53.9579C22.9977 54.8608 22.7388 55.9367 22.8492 57.007Z" fill="#1F3D56"/>
</g>
</svg>

<svg width="84" height="79" fill="none" xmlns="http://www.w3.org/2000/svg"><g opacity=".6" fill="#1F3D56"><path d="M57.694 55.222a5.895 5.895 0 00-.634-11.755h-.212a5.875 5.875 0 00-5.667 6.088 6.026 6.026 0 001.68 3.884c-3.57 7.033-9.028 12.176-17.213 16.479-5.557 2.935-11.33 3.992-17.102 3.252-4.724-.635-8.397-2.73-10.706-6.194-3.357-5.142-3.673-10.705-.845-16.268 1.994-3.989 5.142-6.928 7.136-8.397-.423-1.364-1.057-3.673-1.364-5.352C-2.457 47.979-.878 62.883 3.74 69.916c3.464 5.248 10.497 8.502 18.263 8.502a25.796 25.796 0 006.297-.734c13.442-2.624 23.621-10.602 29.394-22.462z"/><path d="M76.166 42.21C68.19 32.868 56.434 27.726 43 27.726h-1.668a5.766 5.766 0 00-5.143-3.149h-.211a5.88 5.88 0 00.211 11.755h.212a5.92 5.92 0 005.142-3.57h1.889c7.975 0 15.533 2.31 22.356 6.822 5.248 3.463 9.027 7.976 11.124 13.433 1.785 4.409 1.68 8.712-.21 12.385-2.94 5.563-7.873 8.606-14.38 8.606-4.197 0-8.187-1.269-10.285-2.203-1.154 1.057-3.254 2.73-4.723 3.778 4.512 2.1 9.13 3.254 13.532 3.254 10.076 0 17.528-5.563 20.361-11.124 3.05-6.088 2.838-16.582-5.04-25.503z"/><path d="M22.85 57.007a5.895 5.895 0 005.878 5.667h.211a5.88 5.88 0 00-.211-11.755h-.212c-.25-.016-.5.02-.734.106-4.303-7.136-6.087-14.903-5.457-23.3.419-6.297 2.514-11.752 6.191-16.269 3.043-3.884 8.921-5.772 12.91-5.878 11.123-.211 15.858 13.645 16.162 19.206 1.364.315 3.673 1.057 5.249 1.575C61.578 9.357 51.082.537 41.007.537c-9.446 0-18.158 6.821-21.621 16.897-4.828 13.433-1.68 26.345 4.197 36.524a4.716 4.716 0 00-.734 3.049z"/></g></svg>
